dist/svgs/devui-icons/op/more-func.svg

<svg xmlns="http://www.w3.org/2000/svg" viewBox="0 0 16 16"><path d="M1 1h6v6H1V1zm2 2v2h2V3H3zM1 9h6v6H1V9zm2 2v2h2v-2H3zM9 1h6v6H9V1zm2 2v2h2V3h-2zM9 9h6v6H9V9zm2 2v2h2v-2h-2z"/></svg>

<?xml version="1.0" encoding="UTF-8"?>
<svg width="16px" height="16px" viewBox="0 0 16 16" version="1.1" xmlns="http://www.w3.org/2000/svg" xmlns:xlink="http://www.w3.org/1999/xlink">
    <title>操作/更多功能</title>
    <desc>Created with Sketch.</desc>
    <g id="操作/更多功能" stroke="none" stroke-width="1" fill="none" fill-rule="evenodd">
        <g fill-rule="nonzero">
            <path d="M1,1 L7,1 L7,7 L1,7 L1,1 Z M3,3 L3,5 L5,5 L5,3 L3,3 Z M1,9 L7,9 L7,15 L1,15 L1,9 Z M3,11 L3,13 L5,13 L5,11 L3,11 Z M9,1 L15,1 L15,7 L9,7 L9,1 Z M11,3 L11,5 L13,5 L13,3 L11,3 Z M9,9 L15,9 L15,15 L9,15 L9,9 Z M11,11 L11,13 L13,13 L13,11 L11,11 Z" id="形状" fill="#293040"></path>
        </g>
    </g>
</svg>
